img/logos/github.svg

<?xml version="1.0" encoding="UTF-8" standalone="no" ?>
<svg width="256px" height="70px" viewBox="0 0 256 70" version="1.1" xmlns="http://www.w3.org/2000/svg" xmlns:xlink="http://www.w3.org/1999/xlink" preserveAspectRatio="xMinYMin meet">
    <g fill="#11110F">
        <path d="M49.3112672,30.1453552 L27.7969966,30.1453552 C27.2420269,30.1453552 26.7915471,30.596368 26.7915471,31.1513377 L26.7915471,41.6701719 C26.7915471,42.2251416 27.2420269,42.6766876 27.7969966,42.6766876 L36.1897798,42.6766876 L36.1897798,55.7453967 C36.1897798,55.7453967 34.3052286,56.3877968 29.0951245,56.3877968 C22.9483422,56.3877968 14.3615061,54.1417956 14.3615061,35.2600323 C14.3615061,16.3740041 23.3028618,13.8891688 31.6972445,13.8891688 C38.963562,13.8891688 42.093996,15.1686377 44.0857028,15.7849153 C44.7115763,15.9768357 45.2905359,15.3536276 45.2905359,14.7981249 L47.6906066,4.63487635 C47.6906066,4.37525077 47.602643,4.06231399 47.3062327,3.84960227 C46.4975018,3.27277501 41.5624833,0.511254476 29.0951245,0.511254476 C14.7325521,0.511254476 0,6.62178503 0,35.9962601 C0,65.3718014 16.8676659,69.7491847 31.0814999,69.7491847 C42.8504821,69.7491847 49.9899188,64.7198055 49.9899188,64.7198055 C50.2841967,64.5572062 50.3161835,64.1461768 50.3161835,63.9574551 L50.3161835,31.1513377 C50.3161835,30.596368 49.8662369,30.1453552 49.3112672,30.1453552"></path>
        <path d="M160.128207,4.18812843 C160.128207,3.62836076 159.684658,3.17681483 159.129688,3.17681483 L147.015783,3.17681483 C146.462412,3.17681483 146.012466,3.62836076 146.012466,4.18812843 C146.012466,4.190794 146.015664,27.5986787 146.015664,27.5986787 L127.133368,27.5986787 L127.133368,4.18812843 C127.133368,3.62836076 126.687686,3.17681483 126.133783,3.17681483 L114.02041,3.17681483 C113.469173,3.17681483 113.019759,3.62836076 113.019759,4.18812843 L113.019759,67.5767531 C113.019759,68.1359875 113.469173,68.5912653 114.02041,68.5912653 L126.133783,68.5912653 C126.687686,68.5912653 127.133368,68.1359875 127.133368,67.5767531 L127.133368,40.4632062 L146.015664,40.4632062 C146.015664,40.4632062 145.982612,67.5746206 145.982612,67.5767531 C145.982612,68.1359875 146.432025,68.5912653 146.985928,68.5912653 L159.128622,68.5912653 C159.683592,68.5912653 160.127141,68.1359875 160.128207,67.5767531 L160.128207,4.18812843"></path>
        <path d="M72.1316626,12.663011 C72.1316626,8.30108806 68.6344474,4.77615104 64.3199713,4.77615104 C60.0097603,4.77615104 56.5098796,8.30108806 56.5098796,12.663011 C56.5098796,17.020136 60.0097603,20.554669 64.3199713,20.554669 C68.6344474,20.554669 72.1316626,17.020136 72.1316626,12.663011"></path>
        <path d="M71.1704615,54.238289 L71.1704615,24.9778999 C71.1704615,24.4223971 70.7221142,23.9681856 70.1682108,23.9681856 L58.0926893,23.9681856 C57.5387858,23.9681856 57.0429916,24.5396818 57.0429916,25.0951845 L57.0429916,67.0164522 C57.0429916,68.2484743 57.810673,68.6147222 58.8043939,68.6147222 L69.6841451,68.6147222 C70.8777829,68.6147222 71.1704615,68.0288321 71.1704615,66.996727 L71.1704615,54.238289"></path>
        <path d="M206.426859,23.9681856 L194.405714,23.9681856 C193.854475,23.9681856 193.405597,24.4223971 193.405597,24.9816317 L193.405597,56.0631316 C193.405597,56.0631316 190.351929,58.2974043 186.017195,58.2974043 C181.682995,58.2974043 180.532539,56.3307538 180.532539,52.0866487 L180.532539,24.9816317 C180.532539,24.4223971 180.084725,23.9681856 179.532953,23.9681856 L167.332683,23.9681856 C166.78198,23.9681856 166.330966,24.4223971 166.330966,24.9816317 L166.330966,54.1391301 C166.330966,66.7450981 173.356851,69.8291515 183.022171,69.8291515 C190.951148,69.8291515 197.344228,65.4485696 197.344228,65.4485696 C197.344228,65.4485696 197.648635,67.756945 197.786177,68.0309644 C197.924254,68.3039178 198.283037,68.5795369 198.67061,68.5795369 L206.432189,68.5454176 C206.982894,68.5454176 207.433907,68.0901399 207.433907,67.5335709 L207.430175,24.9816317 C207.430175,24.4223971 206.980761,23.9681856 206.426859,23.9681856"></path>
        <path d="M234.123629,58.3213943 C229.954161,58.1945137 227.126,56.3024989 227.126,56.3024989 L227.126,36.228697 C227.126,36.228697 229.916308,34.5184735 233.339421,34.2124671 C237.668292,33.8248947 241.83936,35.1326185 241.83936,45.4589994 C241.83936,56.3483465 239.956941,58.4973213 234.123629,58.3213943 L234.123629,58.3213943 L234.123629,58.3213943 Z M238.865128,22.6066174 C232.037562,22.6066174 227.393622,25.6528198 227.393622,25.6528198 L227.393622,4.18812843 C227.393622,3.62836076 226.946342,3.17681483 226.394037,3.17681483 L214.246014,3.17681483 C213.693709,3.17681483 213.244829,3.62836076 213.244829,4.18812843 L213.244829,67.5767531 C213.244829,68.1359875 213.693709,68.5912653 214.247612,68.5912653 L222.676115,68.5912653 C223.055689,68.5912653 223.343037,68.3956131 223.555215,68.0528221 C223.764729,67.7121635 224.067004,65.1303016 224.067004,65.1303016 C224.067004,65.1303016 229.034542,69.8376813 238.438105,69.8376813 C249.47779,69.8376813 255.809029,64.2378721 255.809029,44.6987815 C255.809029,25.1596911 245.697492,22.6066174 238.865128,22.6066174 L238.865128,22.6066174 L238.865128,22.6066174 Z"></path>
        <path d="M106.035458,23.8594307 L96.9485625,23.8594307 C96.9485625,23.8594307 96.9347017,11.8574787 96.9347017,11.8548131 C96.9347017,11.4006016 96.7006655,11.1734959 96.1755501,11.1734959 L83.7924228,11.1734959 C83.3110226,11.1734959 83.0524633,11.3851414 83.0524633,11.8478827 L83.0524633,24.2534005 C83.0524633,24.2534005 76.8470388,25.7514455 76.4274796,25.8724619 C76.0095198,25.9934784 75.7019141,26.3789183 75.7019141,26.838461 L75.7019141,34.6341588 C75.7019141,35.1949927 76.1497282,35.6470717 76.7036317,35.6470717 L83.0524633,35.6470717 L83.0524633,54.4008882 C83.0524633,68.3305735 92.8233413,69.6990722 99.4168715,69.6990722 C102.429488,69.6990722 106.033325,68.7314737 106.628278,68.5118316 C106.988129,68.3796198 107.197109,68.0069745 107.197109,67.6028755 L107.207238,59.0272347 C107.207238,58.4680001 106.734901,58.015388 106.202855,58.015388 C105.673475,58.015388 104.318837,58.2307652 102.924216,58.2307652 C98.4610015,58.2307652 96.9485625,56.15536 96.9485625,53.4690082 C96.9485625,50.784789 96.9480295,35.6470717 96.9480295,35.6470717 L106.035458,35.6470717 C106.589361,35.6470717 107.037709,35.1949927 107.037709,34.6341588 L107.037709,24.8696781 C107.037709,24.3104435 106.589361,23.8594307 106.035458,23.8594307"></path>
    </g>
</svg>

<svg width="256" height="70" viewBox="0 0 256 70" xmlns="http://www.w3.org/2000/svg" preserveAspectRatio="xMinYMin meet"><g fill="#11110F"><path d="M49.31 30.145H27.798c-.555 0-1.005.45-1.005 1.006v10.52c0 .555.45 1.007 1.005 1.007h8.393v13.068s-1.885.643-7.095.643c-6.147 0-14.733-2.246-14.733-21.128 0-18.886 8.94-21.37 17.335-21.37 7.267 0 10.397 1.28 12.39 1.895.625.192 1.204-.43 1.204-.987l2.4-10.163c0-.26-.087-.573-.384-.785-.808-.577-5.744-3.34-18.21-3.34C14.732.51 0 6.623 0 35.997 0 65.372 16.868 69.75 31.08 69.75c11.77 0 18.91-5.03 18.91-5.03.294-.163.326-.574.326-.763V31.15c0-.554-.45-1.005-1.005-1.005M160.128 4.188c0-.56-.443-1.01-.998-1.01h-12.114c-.554 0-1.004.45-1.004 1.01l.004 23.41h-18.883V4.19c0-.56-.445-1.01-1-1.01H114.02c-.55 0-1 .45-1 1.01v63.39c0 .558.45 1.013 1 1.013h12.114c.554 0 1-.454 1-1.013V40.463h18.882l-.033 27.114c0 .56.45 1.014 1.003 1.014h12.143c.554 0 .997-.454.998-1.013V4.187M72.132 12.663c0-4.362-3.498-7.887-7.812-7.887-4.31 0-7.81 3.525-7.81 7.887 0 4.357 3.5 7.892 7.81 7.892 4.314 0 7.812-3.535 7.812-7.892M71.17 54.238v-29.26c0-.556-.448-1.01-1.002-1.01H58.093c-.554 0-1.05.572-1.05 1.127v41.92c0 1.233.768 1.6 1.76 1.6h10.88c1.195 0 1.487-.586 1.487-1.618v-12.76M206.427 23.968h-12.02c-.553 0-1 .454-1 1.014v31.08s-3.055 2.235-7.39 2.235c-4.334 0-5.484-1.966-5.484-6.21V24.982c0-.56-.448-1.014-1-1.014h-12.2c-.55 0-1.002.454-1.002 1.014V54.14c0 12.605 7.027 15.69 16.692 15.69 7.93 0 14.322-4.38 14.322-4.38s.305 2.307.442 2.58c.138.274.497.55.885.55l7.762-.035c.55 0 1.002-.455 1.002-1.01l-.004-42.553c0-.56-.45-1.014-1.003-1.014M234.124 58.32c-4.17-.125-6.998-2.018-6.998-2.018V36.23s2.79-1.712 6.213-2.018c4.328-.387 8.5.92 8.5 11.247 0 10.888-1.883 13.037-7.716 12.86zm4.74-35.713c-6.826 0-11.47 3.046-11.47 3.046V4.188c0-.56-.448-1.01-1-1.01h-12.148c-.552 0-1 .45-1 1.01v63.39c0 .558.448 1.013 1.002 1.013h8.428c.38 0 .667-.194.88-.537.21-.34.51-2.923.51-2.923s4.97 4.708 14.372 4.708c11.04 0 17.37-5.6 17.37-25.14 0-19.538-10.11-22.09-16.943-22.09zM106.035 23.86H96.95l-.015-12.005c0-.454-.234-.682-.76-.682H83.793c-.48 0-.74.212-.74.675v12.405s-6.205 1.498-6.625 1.62c-.417.12-.725.506-.725.965v7.796c0 .56.448 1.013 1.002 1.013h6.348V54.4c0 13.93 9.77 15.3 16.365 15.3 3.012 0 6.616-.97 7.21-1.188.36-.132.57-.505.57-.91l.01-8.575c0-.56-.472-1.012-1.004-1.012-.53 0-1.884.216-3.28.216-4.462 0-5.974-2.075-5.974-4.76l-.002-17.823h9.087c.554 0 1.003-.452 1.003-1.013V24.87c0-.56-.45-1.01-1.003-1.01"/></g></svg>
